X: 17693
T: Holmes' Fancy
R: polka
M: 2/4
K: Gmajor
GB/c/ dB|ec dB|GB/c/ dB|cA c/d/e|
GB/c/ dB|ec dB|c/d/e d>c|1 BG GD:|2 BG Gg||
|:fd ec|dB Gg|fd ec|d2 e/f/g|
Gg Ag|Bg cg|d>e dB|1 G2 Gg:|2 G2 GD||

